X: 182
M: 2/2
L: 1/8
K: Gm
!segno!G2A2 |\
"4.f. en rondeau"d2d_e |\
f2f2 f2f2 | f4 f2_ed |\
c2d2 _e2c2 | d2B2 dcd_e |\
d4 !+!c4 | !segno!B4 |]

